!!!COM: Louise Reichardt
!!!CNT: Deutsch
!!!TXO: Deutsch
!!!OTL: Aus Novalis Hymnen an die Nacht
!!!LYR: Novalis (Georg Friedrich Freiherr von Hardenberg)
!!!OPR: 
!!!OPS: No opus information available
!!!ONM: No. 24
!!!ENC: Ben Fuhrman
!!!YOR: Louise Reichardt: Songs
!!!YOR: New York, Da Capo Press, 1981
!!!ODT: 1800 - 1826
!!NB: Only vocal melody encoded.
!!NB: First instance of melodic material only encoded.
!!created: 2/18/10 3:55PM
!!proofed and posted: 2/18/10 4:00PM
**kern	**silbe
*clef G2	*
*k[b-e-a-]	*
*M2/2	*
*MM[Recht gross vorgetragen doch nicht zu langsam]	*
{4g	{Hin-
=1	=1
2g	u2-
2f	-ber
=2	=2
(2e-	wall'
B-)	|
4B-	ich
8r	.
8B-	und
=3	=3
2e-	je-
2f	-de
=4	=4
2.g}	Pein}
8r	.
{8b-	{wird
=5	=5
2.b-	einst
4cc	ein
=6	=6
2b-	Sta-
4a-	-chel
4f	der
=7	=7
2g	Wol-
2f	-lust
=8	=8
2.e-}	seyn.}
{4e-	{Noch
=9	=9
4.f	we-
8b-	-nig
4b-	Zei-
8an	-ten,
8b-	so
=10	=10
(4.bn	bin
8cc)	|
8e-	ich
4d	los
8r	.
=11	=11
8f	und
8g	|
8an	lie-
8b-	-ge
8dd	trun-
8cc	|
8b-	-ken
8a-	-der
=12	=12
(8g	Lieb'
4f)	|
8e-	im
2d}	Schooss.}
=13	=13
2r	.
4r	.
8r	.
{8b	{Un-
=14	=14
2ee-	-end-
4.e-	-li-
8ee-	-ches
=15	=15
2ee-	Le-
4dd	-ben
4ee-	wogt
=16	=16
eenq	ma2ch-
2ff	|
4.b-	-tig
8a-	in
=17	=17
(4a-	mir;
4g)}	|}
4r	.
4g	.
=18	=18
{2cc	{schau-
4.b-	-e
8cc	von
=19	=19
4b-	o-
4a-	-ben
4r	.
8r	.
8an	her-
=20	=20
2b-	-un-
4.B-	-ter
8a-	nach
=21	=21
(4a-	dir.
4g)}	|}
4r	.
{4g	{An
=22	=22
(2bn	je-
4an)	|
4bn	-nem
=23	=23
2cc	Hu2-
4.g	-gel
8g	ver
=24	=24
(2a-	lischt
4g)	|
4f	dein
=25	=25
2.e-}	Glanz,}
{4e-	{ein
=26	=26
2en	Schat-
2en	-ten
=27	=27
2f	brin-
4.f	-get
8f	den
=28	=28
(2f#	ku2h
8f#	|
8e-)	|
8d	-len-
8c	-den
=29	=29
(2c	Kranz,
4Bn)}	|}
4r	.
=30	=30
2r	.
4r	.
{4b-	{O
=31	=31
2b-	sau-
4.g	-ge,
8e-	Ge-
=32	=32
(4.b-	-lieb-
8a-)	|
4.f	-ter!
8g	ge-
=33	=33
2e-	-wal-
4.f	-tig
8f	mich
=34	=34
2.g}	an,}
4r	.
=35	=35
{(2b-	{dass
8ee-	|
8b-)	|
8cc	ich
8b-	ent-
=36	=36
(4.b-	-schlum-
8a-)	|
4g	-mern
4cc	und
=37	=37
2b-	lie-
2d	-ben
=38	=38
2e-}	kann.}
4r	.
{4e-	{Ich
=39	=39
(8d	fu2h-
8a-)	|
8g	-le
8f	des
(8f	Tod-
8cc)	|
8b-	-es
8a-	ver
=40	=40
8g	-ju2n-
8f	|
8e-	-gen-
8d	-de
4.e-	Flut,
8e-	zu
=41	=41
4a-	Bla-
8g	-sa-
8f	-mund
4cc	A2-
8b-	-ther
8a-	ver-
=42	=42
4a-	-wan-
8g	-delt
8a-	mein
4g}	Blut,}
8r	.
{8b-	{ich
=43	=43
4b-	le-
8e-	-be
8e-	bey
4ee-	Ta-
8dd	-ge
8cc	voll
=44	=44
4b-	Glau-
8a-	-ben
8b-	und
4g	Muth
4e-	und
=45	=45
4e-	ster-
8.d-	-be
16e-	die
8d-	Na2ch-
8c}	-te}
8r	.
{8c	{in
=46	=46
(8B-	hei-
4a-)	|
16g	-li-
16f	-ger
4b-	Gluth,
(8cc	in
16dd	|
16ee-)	|
=47	=47
(4.ee-S	hei-
8g	|
4b-)	|
8a-	-li-
8f	-ger
=48	=48
2e-}	Gluth.}
2r	.
==	==
*-	*-
